Origami/64x64/apps/ulauncher.svg

<svg width="64" height="64" version="1.1" viewBox="0 0 64 64" xmlns="http://www.w3.org/2000/svg">
 <path d="m56.999854 5.0001714-13.996052 5.9804516v2.464836c-0.0026-1e-3 -0.0052-0.0029-0.0078-0.0039v1.304684c8.8e-5 0.01844 4e-3 0.03622 4e-3 0.05468v23.199151c0 3.169743-1.194436 6.011274-3.28124 8.042944-0.0074 7e-3 -0.0122 0.0164-0.0196 0.02342-0.05654 0.0544-0.11812 0.10332-0.17578 0.15626-0.193099 0.177219-0.388327 0.351093-0.593748 0.511716-1.898234 1.484256-4.299574 2.26562-6.929668 2.26562-6.155538 0-10.999968-4.79519-10.999968-10.999972v-3.453112-13.18746l-13.999958 6.222636v8.531223c0 3.664422 0.4880408 7.022514 1.4609332 10.058565 0.9653212 3.036049 2.4631076 5.650236 4.4921746 7.843725 1.71865 1.861891 3.839064 3.371378 6.347637 4.542959l0.480468 0.14844c0.280512 0.154359 0.557747 0.311399 0.886716 0.441404 3.118051 1.23223 6.824072 1.851558 11.109344 1.851558l-0.0078-0.0156c4.357195 0 8.116838-0.593066 11.292933-1.800777 3.177357-1.198678 5.788399-2.895047 7.851539-5.089829 2.054306-2.18704 3.58389-4.820934 4.582021-7.882789 0.998127-3.061855 1.499994-6.430661 1.499994-10.101533v-0.648436c6.4e-5 -0.0056 4e-3 -0.01 4e-3 -0.0156v-30.445222z" style="opacity:.2"/>
 <path d="m56.999856 4.000179-13.997248 5.9800607v23.499151c0.01536 5.061945 13.997248 4.63536 13.997248 0.965231z" style="fill:#2165b0"/>
 <path d="m20.99996 20.359897-13.99996 6.22342v8.531223c0 3.664423 0.4865218 7.020952 1.4594142 10.057003 0.9653214 3.036051 2.4631074 5.648673 4.4921744 7.842165 1.71865 1.861887 3.839065 3.372934 6.347638 4.544517l3.54918 1.092731c11.409717-1.190937 15.471309-10.485406 16.765973-13.004051h0.0054l0.333657-0.817573c-2.015108 2.080204-4.827922 3.170717-7.953509 3.170717-6.155538 0-10.999968-4.794428-10.999968-10.999211v-3.453505z" style="fill:#2165b0"/>
 <path d="m42.997184 12.44117v1.304294c8.6e-5 0.01844 0.0028 0.03622 0.0028 0.05468v23.200686c0 3.180809-1.201072 6.033317-3.30142 8.066385 0.08352-0.08102 0.173999-0.154299 0.254989-0.237891l-0.333659 0.817575h-0.0054c-1.294666 2.518645-7.258847 10.676633-18.668565 11.86757l-1.478404 0.03828c0.363562 0.216407 0.753992 0.420229 1.198999 0.596092 3.118052 1.232225 6.825809 1.851167 11.111079 1.851167l-0.0082-0.0164c4.357195 0 8.116732-0.591502 11.292829-1.799213 3.177357-1.198678 5.787313-2.89661 7.850453-5.091393 2.054304-2.18704 3.586276-4.81859 4.584405-7.880445s1.497392-6.432614 1.497392-10.103487v-4.374987c-0.919892-8.352038-8.349224-16.040069-13.997298-18.292913zm-3.388228 32.710817c-0.269349 0.255043-0.550088 0.497284-0.84364 0.724606 0.293592-0.227586 0.574377-0.469135 0.84364-0.724606z" style="fill:#7ec183"/>
 <path d="m57 4l-13.998047 5.9804688v1.0000002l13.998047-5.980469v-1zm-36 16.359375l-14 6.224609v1l14-6.224609v-1zm0 16.640625v1c0 6.204783 4.844462 11 11 11 2.72777 0 5.215621-0.831786 7.144531-2.425781 0.174686-0.344628 0.348868-0.690716 0.470703-0.927735h0.003907l0.333984-0.816406c-2.015108 2.080204-4.827538 3.169922-7.953125 3.169922-6.155538 0-11-4.795217-11-11z" style="fill:#ffffff;opacity:.1"/>
 <path d="m42.998047 12.441406v1c5.648074 2.252844 13.076202 9.940931 13.996094 18.292969v-1c-0.919892-8.352038-8.34802-16.040125-13.996094-18.292969zm0.001953 24.558594c0 3.180809-1.200433 6.033338-3.300781 8.066406 0.08352-0.08102 0.172916-0.152736 0.253906-0.236328l-0.333984 0.816406h-0.003907c-0.140156 0.272661-0.360738 0.638497-0.611328 1.027344-2.064184 3.203051-7.884055 9.777834-18.058594 10.839844l-1.478515 0.039062c0.363562 0.216407 0.754212 0.419841 1.199219 0.595704 0.260587 0.102981 0.531963 0.194651 0.800781 0.289062 11.062443-1.384525 16.874099-9.311916 18.148437-11.791016h0.003907l0.333984-0.816406c-0.08099 0.083592-0.170386 0.155308-0.253906 0.236328 2.100348-2.033068 3.300781-4.885597 3.300781-8.066406v-1zm-3.390625 8.152344c-0.269349 0.255043-0.550198 0.497287-0.84375 0.724609 0.293592-0.227586 0.574487-0.469138 0.84375-0.724609z" style="fill:#ffffff;opacity:.1"/>
</svg>

<svg xmlns="http://www.w3.org/2000/svg" width="64" height="64" x="0" y="0" version="1.1" viewBox="0 0 64 64" xml:space="preserve">
 <path style="opacity:0.2" d="m 56.999854,5.0001714 -13.996052,5.9804516 0,2.464836 c -0.0026,-10e-4 -0.0052,-0.0029 -0.0078,-0.0039 l 0,1.304684 c 8.8e-5,0.01844 0.004,0.03622 0.004,0.05468 l 0,23.199151 c 0,3.169743 -1.194436,6.011274 -3.28124,8.042944 -0.0074,0.007 -0.0122,0.0164 -0.0196,0.02342 -0.05654,0.0544 -0.11812,0.10332 -0.17578,0.15626 -0.193099,0.177219 -0.388327,0.351093 -0.593748,0.511716 -1.898234,1.484256 -4.299574,2.26562 -6.929668,2.26562 -6.155538,0 -10.999968,-4.79519 -10.999968,-10.999972 l 0,-3.453112 0,-13.18746 -13.9999578,6.222636 0,8.531223 c 0,3.664422 0.4880408,7.022514 1.4609332,10.058565 0.9653212,3.036049 2.4631076,5.650236 4.4921746,7.843725 1.71865,1.861891 3.839064,3.371378 6.347637,4.542959 l 0.480468,0.14844 c 0.280512,0.154359 0.557747,0.311399 0.886716,0.441404 C 23.78602,60.380672 27.492041,61 31.777313,61 l -0.0078,-0.0156 c 4.357195,0 8.116838,-0.593066 11.292933,-1.800777 3.177357,-1.198678 5.788399,-2.895047 7.851539,-5.089829 2.054306,-2.18704 3.58389,-4.820934 4.582021,-7.882789 C 56.494133,43.14915 56.996,39.780344 56.996,36.109472 l 0,-0.648436 c 6.4e-5,-0.0056 0.004,-0.01 0.004,-0.0156 L 57,5.000214 Z"/>
 <path style="fill:#2165b0" d="m 56.999856,4.000179 -13.997248,5.9800607 0,23.4991513 c 0.01536,5.061945 13.997248,4.63536 13.997248,0.965231 z"/>
 <path style="fill:#2165b0" d="m 20.99996,20.359897 -13.9999596,6.22342 0,8.531223 c 0,3.664423 0.4865218,7.020952 1.4594142,10.057003 0.9653214,3.036051 2.4631074,5.648673 4.4921744,7.842165 1.71865,1.861887 3.839065,3.372934 6.347638,4.544517 l 3.54918,1.092731 C 34.258124,57.460019 38.319716,48.16555 39.61438,45.646905 l 0.0054,0 0.333657,-0.817573 c -2.015108,2.080204 -4.827922,3.170717 -7.953509,3.170717 -6.155538,0 -10.999968,-4.794428 -10.999968,-10.999211 l 0,-3.453505 z"/>
 <path style="fill:#7ec183" d="m 42.997184,12.44117 0,1.304294 c 8.6e-5,0.01844 0.0028,0.03622 0.0028,0.05468 l 0,23.200686 c 0,3.180809 -1.201072,6.033317 -3.30142,8.066385 0.08352,-0.08102 0.173999,-0.154299 0.254989,-0.237891 l -0.333659,0.817575 -0.0054,0 c -1.294666,2.518645 -7.258847,10.676633 -18.668565,11.86757 l -1.478404,0.03828 c 0.363562,0.216407 0.753992,0.420229 1.198999,0.596092 3.118052,1.232225 6.825809,1.851167 11.111079,1.851167 l -0.0082,-0.0164 c 4.357195,0 8.116732,-0.591502 11.292829,-1.799213 3.177357,-1.198678 5.787313,-2.89661 7.850453,-5.091393 2.054304,-2.18704 3.586276,-4.81859 4.584405,-7.880445 0.998129,-3.061855 1.497392,-6.432614 1.497392,-10.103487 l 0,-4.374987 C 56.07459,22.382045 48.645258,14.694014 42.997184,12.44117 Z m -3.388228,32.710817 c -0.269349,0.255043 -0.550088,0.497284 -0.84364,0.724606 0.293592,-0.227586 0.574377,-0.469135 0.84364,-0.724606 z"/>
 <path style="fill:#ffffff;opacity:0.1" d="M 57 4 L 43.001953 9.9804688 L 43.001953 10.980469 L 57 5 L 57 4 z M 21 20.359375 L 7 26.583984 L 7 27.583984 L 21 21.359375 L 21 20.359375 z M 21 37 L 21 38 C 21 44.204783 25.844462 49 32 49 C 34.72777 49 37.215621 48.168214 39.144531 46.574219 C 39.319217 46.229591 39.493399 45.883503 39.615234 45.646484 L 39.619141 45.646484 L 39.953125 44.830078 C 37.938017 46.910282 35.125587 48 32 48 C 25.844462 48 21 43.204783 21 37 z"/>
 <path style="fill:#ffffff;opacity:0.1" d="M 42.998047 12.441406 L 42.998047 13.441406 C 48.646121 15.69425 56.074249 23.382337 56.994141 31.734375 L 56.994141 30.734375 C 56.074249 22.382337 48.646121 14.69425 42.998047 12.441406 z M 43 37 C 43 40.180809 41.799567 43.033338 39.699219 45.066406 C 39.782739 44.985386 39.872135 44.91367 39.953125 44.830078 L 39.619141 45.646484 L 39.615234 45.646484 C 39.475078 45.919145 39.254496 46.284981 39.003906 46.673828 C 36.939722 49.876879 31.119851 56.451662 20.945312 57.513672 L 19.466797 57.552734 C 19.830359 57.769141 20.221009 57.972575 20.666016 58.148438 C 20.926603 58.251419 21.197979 58.343089 21.466797 58.4375 C 32.52924 57.052975 38.340896 49.125584 39.615234 46.646484 L 39.619141 46.646484 L 39.953125 45.830078 C 39.872135 45.91367 39.782739 45.985386 39.699219 46.066406 C 41.799567 44.033338 43 41.180809 43 38 L 43 37 z M 39.609375 45.152344 C 39.340026 45.407387 39.059177 45.649631 38.765625 45.876953 C 39.059217 45.649367 39.340112 45.407815 39.609375 45.152344 z"/>
</svg>
